sass/icons/active-symbols/volatility/boom300 index/boom300 index.svg

<svg width="32" height="32" viewBox="0 0 32 32" fill="none" xmlns="http://www.w3.org/2000/svg">
<path d="M0 2C0 0.89543 0.895431 0 2 0H17C18.1046 0 19 0.895431 19 2V8C19 9.10457 18.1046 10 17 10H2C0.895431 10 0 9.10457 0 8V2Z" fill="#0E0E0E"/>
<path d="M4.40068 4.62431C4.69935 4.62431 4.91535 4.56831 5.04868 4.45631C5.18735 4.33898 5.25668 4.19498 5.25668 4.02431V3.96831C5.25668 3.76565 5.19001 3.60298 5.05668 3.48031C4.92868 3.35765 4.74468 3.29631 4.50468 3.29631C4.28068 3.29631 4.07001 3.35498 3.87268 3.47231C3.67534 3.58431 3.50734 3.74698 3.36868 3.96031L2.61668 3.25631C2.72334 3.11765 2.83801 2.99231 2.96068 2.88031C3.08334 2.76298 3.22201 2.66431 3.37668 2.58431C3.53134 2.49898 3.70468 2.43498 3.89668 2.39231C4.08868 2.34431 4.30468 2.32031 4.54468 2.32031C4.84335 2.32031 5.11268 2.35498 5.35268 2.42431C5.59801 2.49365 5.80601 2.59498 5.97668 2.72831C6.15268 2.85631 6.28601 3.01098 6.37668 3.19231C6.47268 3.37365 6.52068 3.57631 6.52068 3.80031C6.52068 3.97631 6.49134 4.13631 6.43268 4.28031C6.37934 4.42431 6.30201 4.54965 6.20068 4.65631C6.10468 4.76298 5.99268 4.85098 5.86468 4.92031C5.73668 4.98431 5.60068 5.02965 5.45668 5.05631V5.10431C5.62201 5.13631 5.77401 5.18965 5.91268 5.26431C6.05668 5.33365 6.17934 5.42431 6.28068 5.53631C6.38734 5.64831 6.47001 5.78165 6.52868 5.93631C6.58734 6.08565 6.61668 6.25631 6.61668 6.44831C6.61668 6.69898 6.56601 6.92565 6.46468 7.12831C6.36335 7.33098 6.21935 7.50431 6.03268 7.64831C5.84601 7.79231 5.62201 7.90431 5.36068 7.98431C5.09934 8.05898 4.81134 8.09631 4.49668 8.09631C4.21401 8.09631 3.96334 8.06698 3.74468 8.00831C3.52601 7.94965 3.33401 7.87231 3.16868 7.77631C3.00868 7.67498 2.86734 7.56031 2.74468 7.43231C2.62734 7.30431 2.52334 7.16831 2.43268 7.02431L3.32068 6.33631C3.44334 6.56565 3.59268 6.75498 3.76868 6.90431C3.95001 7.04831 4.19268 7.12031 4.49668 7.12031C4.76868 7.12031 4.97935 7.05365 5.12868 6.92031C5.28335 6.78165 5.36068 6.59498 5.36068 6.36031V6.31231C5.36068 6.08298 5.27268 5.91231 5.09668 5.80031C4.92601 5.68298 4.68868 5.62431 4.38468 5.62431H3.88068V4.62431H4.40068Z" fill="white"/>
<path d="M9.50155 8.09631C8.77089 8.09631 8.22955 7.84298 7.87755 7.33631C7.52555 6.82965 7.34955 6.12031 7.34955 5.20831C7.34955 4.29631 7.52555 3.58698 7.87755 3.08031C8.22955 2.57365 8.77089 2.32031 9.50155 2.32031C10.2322 2.32031 10.7736 2.57365 11.1256 3.08031C11.4776 3.58698 11.6536 4.29631 11.6536 5.20831C11.6536 6.12031 11.4776 6.82965 11.1256 7.33631C10.7736 7.84298 10.2322 8.09631 9.50155 8.09631ZM9.50155 7.08031C9.82155 7.08031 10.0429 6.96298 10.1656 6.72831C10.2882 6.49365 10.3496 6.16298 10.3496 5.73631V4.68031C10.3496 4.25365 10.2882 3.92298 10.1656 3.68831C10.0429 3.45365 9.82155 3.33631 9.50155 3.33631C9.18155 3.33631 8.96022 3.45365 8.83755 3.68831C8.71489 3.92298 8.65355 4.25365 8.65355 4.68031V5.73631C8.65355 6.16298 8.71489 6.49365 8.83755 6.72831C8.96022 6.96298 9.18155 7.08031 9.50155 7.08031Z" fill="white"/>
<path d="M14.2984 8.09631C13.5678 8.09631 13.0264 7.84298 12.6744 7.33631C12.3224 6.82965 12.1464 6.12031 12.1464 5.20831C12.1464 4.29631 12.3224 3.58698 12.6744 3.08031C13.0264 2.57365 13.5678 2.32031 14.2984 2.32031C15.0291 2.32031 15.5704 2.57365 15.9224 3.08031C16.2744 3.58698 16.4504 4.29631 16.4504 5.20831C16.4504 6.12031 16.2744 6.82965 15.9224 7.33631C15.5704 7.84298 15.0291 8.09631 14.2984 8.09631ZM14.2984 7.08031C14.6184 7.08031 14.8398 6.96298 14.9624 6.72831C15.0851 6.49365 15.1464 6.16298 15.1464 5.73631V4.68031C15.1464 4.25365 15.0851 3.92298 14.9624 3.68831C14.8398 3.45365 14.6184 3.33631 14.2984 3.33631C13.9784 3.33631 13.7571 3.45365 13.6344 3.68831C13.5118 3.92298 13.4504 4.25365 13.4504 4.68031V5.73631C13.4504 6.16298 13.5118 6.49365 13.6344 6.72831C13.7571 6.96298 13.9784 7.08031 14.2984 7.08031Z" fill="white"/>
<path d="M0 17.4144L6.99995 24.4143L9.99995 21.4143L17 28.4143L20 25.4143L26 31.4143V28.5859L20 22.5859L17 25.5859L9.99995 18.5859L6.99995 21.5859L0 14.5859V17.4144Z" fill="#FF444F"/>
<path d="M27.0001 10L31.7072 14.7071L30.293 16.1213L28.0001 13.8284L28.0001 32H26.5858L26.0001 31.4142L26.0001 13.8284L23.7072 16.1213L22.293 14.7071L27.0001 10Z" fill="#85ACB0"/>
</svg>

<svg width="32" height="32" fill="none" xmlns="http://www.w3.org/2000/svg"><path d="M0 2a2 2 0 012-2h15a2 2 0 012 2v6a2 2 0 01-2 2H2a2 2 0 01-2-2V2z" fill="#0E0E0E"/><path d="M4.4 4.624c.3 0 .515-.056.649-.168a.545.545 0 00.208-.432v-.056a.631.631 0 00-.2-.488c-.128-.122-.312-.184-.552-.184-.224 0-.435.059-.632.176a1.464 1.464 0 00-.504.488l-.752-.704a2.91 2.91 0 01.344-.376c.122-.117.261-.216.416-.296.154-.085.328-.149.52-.192.192-.048.408-.072.648-.072.298 0 .568.035.808.104.245.07.453.171.624.304.176.128.309.283.4.464.096.182.144.384.144.608 0 .176-.03.336-.088.48a1.248 1.248 0 01-.568.64 1.53 1.53 0 01-.408.136v.048c.165.032.317.086.456.16.144.07.266.16.368.272.106.112.189.246.248.4.058.15.088.32.088.512 0 .251-.051.478-.152.68a1.496 1.496 0 01-.432.52 2.09 2.09 0 01-.672.336c-.262.075-.55.112-.864.112-.283 0-.534-.029-.752-.088a2.362 2.362 0 01-.576-.232 2.254 2.254 0 01-.424-.344 2.85 2.85 0 01-.312-.408l.888-.688c.122.23.272.419.448.568.181.144.424.216.728.216.272 0 .482-.066.632-.2a.715.715 0 00.232-.56v-.048c0-.229-.088-.4-.264-.512-.171-.117-.408-.176-.712-.176H3.88v-1h.52zM9.502 8.096c-.731 0-1.272-.253-1.624-.76-.352-.506-.528-1.216-.528-2.128 0-.912.176-1.621.528-2.128.352-.506.893-.76 1.624-.76.73 0 1.272.254 1.624.76.352.507.528 1.216.528 2.128 0 .912-.176 1.622-.528 2.128-.352.507-.894.76-1.624.76zm0-1.016c.32 0 .54-.117.664-.352.122-.234.184-.565.184-.992V4.68c0-.426-.062-.757-.184-.992-.123-.234-.344-.352-.664-.352-.32 0-.542.118-.664.352-.123.235-.184.566-.184.992v1.056c0 .427.06.758.184.992.122.235.344.352.664.352zM14.298 8.096c-.73 0-1.272-.253-1.624-.76-.352-.506-.528-1.216-.528-2.128 0-.912.176-1.621.528-2.128.352-.506.894-.76 1.624-.76.731 0 1.272.254 1.624.76.352.507.528 1.216.528 2.128 0 .912-.176 1.622-.528 2.128-.352.507-.893.76-1.624.76zm0-1.016c.32 0 .542-.117.664-.352.123-.234.184-.565.184-.992V4.68c0-.426-.06-.757-.184-.992-.122-.234-.344-.352-.664-.352-.32 0-.54.118-.664.352-.122.235-.184.566-.184.992v1.056c0 .427.062.758.184.992.123.235.344.352.664.352z" fill="#fff"/><path d="M0 17.414l7 7 3-3 7 7 3-3 6 6v-2.828l-6-6-3 3-7-7-3 3-7-7v2.828z" fill="#FF444F"/><path d="M27 10l4.707 4.707-1.414 1.414L28 13.828V32h-1.414L26 31.414V13.828l-2.293 2.293-1.414-1.414L27 10z" fill="#85ACB0"/></svg>
